!!!!SEGMENT: pl-kozmzk--mzk-m-159--018_walczynski-franciszek--praeludia-organi-op-5-allegro-non-troppo.krn
!!!cenid: 18xx:2761
!!!COM: Walczyński, Franciszek
!!!COM-rismid: pe30021989
!!!CDT: ~1852-1937
!!!CNT: Polish
!!!GTL: Praeludia organi op. 5
!!!OTL: 18. Allegro non troppo
!!!PDT: 1894
!!!AGN: Secular; Prelude
!!!SMS-siglum: PL-KOZmzk
!!!SMS-shelfmark: mzk/m/159
!!!SMS-shelfwork: 018 G
!!!SMS-variant:
!!!SMS-altvar:
!!!NIFC-rismid: 1001116718
!!!URL-scan: https://repozytorium.nifc.pl/islandora/object/pl-kozmzk%3A2265/datastream/PDF/view
!!!ONB-nifc: UWAGA: numeracja plików zgodna z numeracją źrodłową
!!!OMD: 18. Allegro non troppo.
!!!AIN: 1 empty 1 organ
!!!key:
**kern	**kern	**dynam
*part2	*part1	*part1
*staff2	*staff1	*
*Iorgan	*Iempty	*
*I"[Organo]	*	*
*clefF4	*clefG2	*
*k[f#]	*k[f#]	*
*e:	*e:	*
*M2/4	*M2/4	*
=1	=1	=1
*^	*^	*
2rG	2rC	8e/L	2r	p
.	.	8g/	.	.
.	.	8b/	.	.
.	.	8ee/J	.	.
=2	=2	=2	=2	=2
2rG	2rC	2dd#X/	8r	.
.	.	.	8cc'\L	.
.	.	.	8b'\	.
.	.	.	8a'\J	.
=3	=3	=3	=3	=3
!	!	!LO:TX:t=P:problem=pf się nie wyświetla	!	!
(8g/L	2r	(8ee/L	8b\L	pf
8f#/	.	8dd/	8a\	.
8e/	.	8cc/	8g\	.
8d/J	.	[8b/J	8f#\J	.
=4	=4	=4	=4	=4
(2c/)	2r	8b/L]	2e\	.
.	.	8a/	.	.
.	.	8g/	.	.
.	.	8a/J	.	.
=5	=5	=5	=5	=5
!	!	!	!	!LO:HP:b=2
8B/L	2r	2b/)	8d#X\L	<
8A/	.	.	8f#\	.
8G/	.	.	8e\	.
8F#/J)	.	.	8d#\J	[[
=6	=6	=6	=6	=6
!	!	!	!	!LO:DY:a
(2G/	2r	(8b/L	[2e\	f
.	.	16a#X/L	.	.
.	.	16b/JJ	.	.
.	.	16ee/LL	.	.
.	.	16b/	.	.
.	.	16cc/	.	.
.	.	16dd/JJ	.	.
=7	=7	=7	=7	=7
8A/L	2r	8cc/L	2e\_	.
8B/J	.	8b/J	.	.
4c/)	.	8an/L	.	.
.	.	16g/L	.	.
.	.	16f#/JJ)	.	.
!!LO:LB:g=original
=8	=8	=8	=8	=8
[2B/	2r	8g/L	8e\L]	<
.	.	8b^/	8g\	.
.	.	8a^/	8f#\	.
.	.	[8g^/J	[8e\J	.
=9	=9	=9	=9	=9
!	!	!	!	!LO:DY:b=2
(8B/L]	(2BB\	(8g/L]	(8e\L]	[ fp
8A/	.	8f#/	8d#X\	.
8G/	.	8e/	8B\	.
8F#/J	.	8d#X/J	8A\J	.
=10	=10	=10	=10	=10
4G/	8E\L	2e/)	4B\	.
.	8D\	.	.	.
4A/)	8C\	.	4c\)	.
.	8AA\J)	.	.	.
=11	=11	=11	=11	=11
!	!	!	!	!LO:DY:rj
(8G/L	2BB\	8e/	(8B\L	p
8B/	.	4g^/	8e\	.
8A#X/	.	.	8c#X\	.
[8An/J)	.	8f#/	8d#X\J	.
=12	=12	=12	=12	=12
8A/L]	2E\	[2e/	2B\)	.
8G/	.	.	.	.
8F#/	.	.	.	.
8G/J	.	.	.	.
=13	=13	=13	=13	=13
!LO:TX:b:i:t=Ped.	!	!	!	!LO:HP:a
(2A/	8AA'\L	2e/_	(2c\	p <
.	8C'\	.	.	.
.	8E'\	.	.	.
.	8A'\J	.	.	.
=14	=14	=14	=14	=14
2G/)	8E'\L	2e/_	2B\)	[[
.	8BB'\	.	.	.
.	8GG'\	.	.	.
.	8BB'\J	.	.	.
=15	=15	=15	=15	=15
!	!	!	!	!LO:HP:a
(4F#/	8C'\L	2e/_	(4A\	>
.	8AA'\	.	.	.
!LO:TX:b:i:t=rit.	!	!	!	!
4A/	8EE'\	.	4B\	.
.	8FF#'\J	.	.	.
=16	=16	=16	=16	=16
!	!	!	!	!LO:DY:a:rj
2G#X/)	2EE;\	2e;/]	2B\)	] pp
*v	*v	*	*	*
*	*v	*v	*
==	==	==
*-	*-	*-
!!!system-decoration: {(s1,s2)}
!!!EED: Andrzej Borzym
!!!EST: 2021-08-08
!!!ENC: Krzysztof Stępień
!!!END: 2021-07-26
